_includes/icons/color-party-balloons.svg

<svg fill="#666" height="50" viewBox="0 0 48 48" width="50" xmlns="http://www.w3.org/2000/svg"><path d="m23.1 44.4-5.3-14.2 1.8-.7 3.4 9v-11.5h2v10.4l3-9.7 2 .6-5 16-1-.3z" fill="#b0bec5"/><path d="m26 30h-1l-1 1-1-1h-1l1-3.8h2z" fill="#ffa000"/><path d="m21.6 31.8-.9.4-.6 1.3-1.3-.6-.9.4-.5-3.9 1.9-.8z" fill="#558b2f"/><path d="m22 15.4c2 4.6 1.3 13.2-3.2 15.2s-11.1-3.4-13.1-8 .1-9.9 4.6-11.9c4.5-1.9 9.7.1 11.7 4.7z" fill="#7cb342"/><path d="m28.6 26.4 1.9.8-.5 3.8-.9-.4-1.3.6-.6-1.3-.9-.4z" fill="#dd2c00"/><path d="m25.1 11.7c-2.1 4.8-1.4 13.8 3.3 15.9s11.7-3.6 13.8-8.3-.1-10.4-4.8-12.5-10.2.1-12.3 4.9z" fill="#ff3d00"/><path d="m20.6 29.2c.4-.5.8-1.1 1.1-1.7-4.4-1.9-7.7-8.8-7.7-13.5 0-1.4.3-2.7.8-3.9-.2 0-.3 0-.5 0-.6 0-1.1 0-1.7.1-.4 1.1-.6 2.4-.6 3.8 0 5.3 3.5 12.8 8.6 15.2z" fill="#558b2f"/><path d="m8.9 23.6c-1.9-4.2.1-9.2 4.4-11.1.5-.2 1-.4 1.5-.5-1.2-.1-2.5 0-3.7.6-3.7 1.6-5.3 5.8-3.7 9.5.5 1.2 1.3 2.2 2.3 2.9-.3-.4-.6-.9-.8-1.4z" fill="#f1f8e9"/><path d="m34 14c0 5.5-4.5 14-10 14s-10-8.5-10-14 4.5-10 10-10 10 4.5 10 10z" fill="#ffc107"/><path d="m36 14c0-3.1-1.2-5.8-3.1-8-.8.1-1.6.2-2.3.5 2.1 1.9 3.4 4.5 3.4 7.5 0 4.3-2.8 10.5-6.6 12.9.3.3.7.5 1 .6s.7.3 1.1.3c4-3.1 6.5-9.2 6.5-13.8z" fill="#dd2c00"/><path d="m17 16.3c0-5.2 4.2-9.4 9.4-9.4.6.1 1.1.1 1.7.2-1.2-.7-2.5-1.1-4-1.1-4.4 0-8 3.6-8 8 0 1.4.4 2.8 1.1 4-.1-.5-.2-1.1-.2-1.7z" fill="#fffde7"/></svg>

<svg xmlns="http://www.w3.org/2000/svg" viewBox="0 0 48 48" width="50" height="50" fill="#666"><path fill="#b0bec5" d="M23.1 44.4L17.8 30.2 19.6 29.5 23 38.5 23 27 25 27 25 37.4 28 27.7 30 28.3 25 44.3 24 44z"/><path d="M26,30h-1l-1,1l-1-1h-1l1-3.8h2L26,30z" fill="#ffa000"/><path d="M21.6,31.8l-0.9,0.4l-0.6,1.3l-1.3-0.6l-0.9,0.4l-0.5-3.9l1.9-0.8L21.6,31.8z" fill="#558b2f"/><path d="M22,15.4c2,4.6,1.3,13.2-3.2,15.2c-4.5,2-11.1-3.4-13.1-8c-2-4.6,0.1-9.9,4.6-11.9 C14.8,8.8,20,10.8,22,15.4z" fill="#7cb342"/><path d="M28.6,26.4l1.9,0.8L30,31l-0.9-0.4l-1.3,0.6l-0.6-1.3l-0.9-0.4L28.6,26.4z" fill="#dd2c00"/><path d="M25.1,11.7c-2.1,4.8-1.4,13.8,3.3,15.9c4.7,2.1,11.7-3.6,13.8-8.3S42.1,8.9,37.4,6.8 C32.7,4.7,27.2,6.9,25.1,11.7z" fill="#ff3d00"/><path d="M20.6,29.2c0.4-0.5,0.8-1.1,1.1-1.7C17.3,25.6,14,18.7,14,14c0-1.4,0.3-2.7,0.8-3.9 c-0.2,0-0.3,0-0.5,0c-0.6,0-1.1,0-1.7,0.1C12.2,11.3,12,12.6,12,14C12,19.3,15.5,26.8,20.6,29.2z" fill="#558b2f"/><path d="M8.9,23.6C7,19.4,9,14.4,13.3,12.5c0.5-0.2,1-0.4,1.5-0.5c-1.2-0.1-2.5,0-3.7,0.6 c-3.7,1.6-5.3,5.8-3.7,9.5c0.5,1.2,1.3,2.2,2.3,2.9C9.4,24.6,9.1,24.1,8.9,23.6z" fill="#f1f8e9"/><path d="M34,14c0,5.5-4.5,14-10,14s-10-8.5-10-14S18.5,4,24,4S34,8.5,34,14z" fill="#ffc107"/><path d="M36,14c0-3.1-1.2-5.8-3.1-8c-0.8,0.1-1.6,0.2-2.3,0.5C32.7,8.4,34,11,34,14c0,4.3-2.8,10.5-6.6,12.9 c0.3,0.3,0.7,0.5,1,0.6c0.3,0.1,0.7,0.3,1.1,0.3C33.5,24.7,36,18.6,36,14z" fill="#dd2c00"/><path d="M17,16.3c0-5.2,4.2-9.4,9.4-9.4C27,7,27.5,7,28.1,7.1c-1.2-0.7-2.5-1.1-4-1.1c-4.4,0-8,3.6-8,8 c0,1.4,0.4,2.8,1.1,4C17.1,17.5,17,16.9,17,16.3z" fill="#fffde7"/></svg>
